X:1
T:No.34 King George IV
C:highland
M:4/4
L:1/8
K:D
A,2 E>A, (3B,A,G, E>A,|A,>G, A,>=C B,>A, G,>B,|A,2 E>A, (3B,A,G, E>A,|
|[1B,>D G>E D<B, G,>B,:|[2B,>D G>E D<B, G,>B||c<e A>B (3cBA e>A|
(3cBA e>A d>B G>B|c<e A>B (3cBA e>A|c>e a>e d>B G>B|
A<e A>B (3cBA e>A|(3cBA e>A d>B G>A|
A<a A<g A<f e>D|d>D c>D B>A G>B,||
